symbols/web/local_shipping/materialsymbolsrounded/local_shipping_wght300_40px.svg

<svg xmlns="http://www.w3.org/2000/svg" height="40" width="40"><path d="M9.417 32.583q-1.959 0-3.292-1.354-1.333-1.354-1.333-3.312h-.125q-1-.042-1.709-.792-.708-.75-.708-1.792V10.125q0-1.083.771-1.854.771-.771 1.812-.771h20.5q1.042 0 1.813.771.771.771.771 1.854V14h3.5q.291 0 .562.125.271.125.438.375l5.083 6.792q.125.166.188.354.062.187.062.396v4.583q0 .542-.375.917t-.917.375h-1.541q0 1.958-1.355 3.312-1.354 1.354-3.27 1.354-1.959 0-3.292-1.354-1.333-1.354-1.333-3.312H14.042q0 2-1.354 3.333-1.355 1.333-3.271 1.333Zm0-2.083q1.083 0 1.812-.771.729-.771.729-1.812 0-1.042-.729-1.792t-1.812-.75q-1.042 0-1.792.75t-.75 1.792q0 1.041.75 1.812.75.771 1.792.771ZM4.333 10.125v15.208q0 .084.042.167t.083.146q.042.062.104.125.063.062.146.062h.625q.542-1.083 1.625-1.812 1.084-.729 2.459-.729 1.291 0 2.416.729t1.625 1.812h12.375V10.125q0-.25-.145-.396-.146-.146-.355-.146h-20.5q-.208 0-.354.146t-.146.396ZM30.292 30.5q1.041 0 1.791-.771t.75-1.812q0-1.042-.75-1.792t-1.791-.75q-1.042 0-1.792.75t-.75 1.792q0 1.041.75 1.812.75.771 1.792.771Zm-2.375-8.125h7.791l-4.75-6.292h-3.041Zm-12.834-4.667Z"/></svg>

<svg xmlns="http://www.w3.org/2000/svg" height="40" width="40"><path d="M9.417 32.583Q7.458 32.583 6.125 31.229Q4.792 29.875 4.792 27.917H4.667Q3.667 27.875 2.958 27.125Q2.25 26.375 2.25 25.333V10.125Q2.25 9.042 3.021 8.271Q3.792 7.5 4.833 7.5H25.333Q26.375 7.5 27.146 8.271Q27.917 9.042 27.917 10.125V14H31.417Q31.708 14 31.979 14.125Q32.25 14.25 32.417 14.5L37.5 21.292Q37.625 21.458 37.688 21.646Q37.75 21.833 37.75 22.042V26.625Q37.75 27.167 37.375 27.542Q37 27.917 36.458 27.917H34.917Q34.917 29.875 33.562 31.229Q32.208 32.583 30.292 32.583Q28.333 32.583 27 31.229Q25.667 29.875 25.667 27.917H14.042Q14.042 29.917 12.688 31.25Q11.333 32.583 9.417 32.583ZM9.417 30.5Q10.5 30.5 11.229 29.729Q11.958 28.958 11.958 27.917Q11.958 26.875 11.229 26.125Q10.5 25.375 9.417 25.375Q8.375 25.375 7.625 26.125Q6.875 26.875 6.875 27.917Q6.875 28.958 7.625 29.729Q8.375 30.5 9.417 30.5ZM4.333 10.125V25.333Q4.333 25.417 4.375 25.5Q4.417 25.583 4.458 25.646Q4.5 25.708 4.562 25.771Q4.625 25.833 4.708 25.833H5.333Q5.875 24.75 6.958 24.021Q8.042 23.292 9.417 23.292Q10.708 23.292 11.833 24.021Q12.958 24.75 13.458 25.833H25.833V10.125Q25.833 9.875 25.688 9.729Q25.542 9.583 25.333 9.583H4.833Q4.625 9.583 4.479 9.729Q4.333 9.875 4.333 10.125ZM30.292 30.5Q31.333 30.5 32.083 29.729Q32.833 28.958 32.833 27.917Q32.833 26.875 32.083 26.125Q31.333 25.375 30.292 25.375Q29.25 25.375 28.5 26.125Q27.75 26.875 27.75 27.917Q27.75 28.958 28.5 29.729Q29.25 30.5 30.292 30.5ZM27.917 22.375H35.708L30.958 16.083H27.917ZM15.083 17.708Q15.083 17.708 15.083 17.708Q15.083 17.708 15.083 17.708Q15.083 17.708 15.083 17.708Q15.083 17.708 15.083 17.708Q15.083 17.708 15.083 17.708Q15.083 17.708 15.083 17.708Q15.083 17.708 15.083 17.708Q15.083 17.708 15.083 17.708Q15.083 17.708 15.083 17.708Q15.083 17.708 15.083 17.708Q15.083 17.708 15.083 17.708Q15.083 17.708 15.083 17.708Z"/></svg>
